X:1
T:Alma Redemptoris Mater - Aichinger
T:#
%%score { 1 | 2 } 3 4
L:1/8
Q:1/4=200
M:none
K:F
V:1 treble nm="Soprano I" snm="S"
V:2 treble 
V:3 treble-8 nm="Tenor" snm="T"
V:4 bass nm="Bass" snm="B"
V:1
"^Alma Redemptoris Mater""^Gregor Aichinger\n (1564-1628)" z16 | z16 | z16 | z16 | z8 d8- | d8 G8 | %6
w: ||||Al\-|* ma|
[M:4/2] B12 B4 | c4 d4 _e8 | d12 D4 | ^F6 G2 A4 B4- | B4 A4 z8 | z4 d8 G4 | c8 d8 | z8 z4 B4 | %14
w: Re- dem-|pto- ris Ma-|ter, quae|per- vi- a coe\-|* li|por- ta|ma- nes,|et|
 (A2 G2 A2 B2 c4) d4- | d4 B4 c8- | c4 B4 A8 | =B16 | z8 z4 d4 | f6 ed c8 | B4 A4 c2 BA G4 | %21
w: stel\- * * * * la,|* et stel\-|* la ma-|ris,|suc-|cur- re ca- den-|ti, suc- cur- re ca- den-|
 A8 c6 c2 | c4 F4 B8 | A8 A6 A2 | A8 d8 | z2 A2 A2 A2 c8 | G8 z2 B2 d2 B2 | A16 | %28
w: ti, sur- ge-|re qui cu-|rat po- p-|lo: Tu|quae ge- nu- i-|sti, quae ge- nu-|i-|
 G2 G2 c2 A2 B4 B2 d2 | f2 d2 c4 d8 | z2 D2 F2 D2 G8 ||[M:3/1][Q:1/4=400] ^F16 F8 | G12 =F4 D8 | %33
w: sti, quae ge- nu- i- sti, quae|ge- nu- i- sti,|quae ge- nu- i-|sti, na-|tu- ra mi-|
 F8 F8 A8 |[M:3/1][Q:1/4=400][Q:1/4=400][Q:1/4=400] B12 c4 d8 | c16 c8 | d16 c8 | B24 | A8 B8 G8 || %39
w: ran- te, na-|tu- ra mi-|ran- te,|tu- um|san-|ctum Ge- ni-|
[Q:1/4=200] A8 A8 | d8 G8 | c4 d4 _e4 B4 |[M:4/2][Q:1/4=200][Q:1/4=200][Q:1/4=200] (d6 cB A4 B4- | %43
w: to- rem,|Vir- go|pri- us ac po-|ste\- * * * *|
 B4) A4 B4 B2 B2 | d4 c2 c2 B4 c4 | z4 c2 c2 d4 c2 c2 | d4 c4 z4 d4- | d2 c2 B2 A2 G8- | %48
w: * ri- us, Ga- bri-|e- lis ab o- re,|Ga- bri- e- lis ab|o- re su\-|* mens il- lud A\-|
 G4 ^F4 z4 d4- | d2 c2 B2 A2 G8 | D4 B4 A4 B4- | (B2 AG A4) B4 d4- | d2 c2 B2 A2 G8- | G4 ^F4 z8 | %54
w: * ve, su\-|* mens il- lud A-|ve, il- lud A\-|* * * * ve, su\-|* mens il- lud A\-|* ve,|
 z4 c6 B2 A2 G2 | ^F8 G8 | G6 G2 G4 G4 | ^F6 F2[Q:1/4=198] (F4[Q:1/4=195] G4- | %58
w: su- mens il- lud|A- ve|pec- ca- to- rum|mi- se- re\- *|
[Q:1/4=194] G2[Q:1/4=193] ^F[Q:1/4=192]E[Q:1/4=190] !courtesy!^F4)[Q:1/4=188] G4[Q:1/4=185] G4- | %59
w: * * * * re, mi\-|
[Q:1/4=183] G4[Q:1/4=180] G4[Q:1/4=177] c8- |[Q:1/4=172] c8[Q:1/4=170] !fermata!=B16 |] %61
w: * se- re\-|* re.|
V:2
 z16 | G16 | D8 F8- | F4 G4 A4 A4 | (B4 A2 G2 F8) | G8 B8- |[M:4/2] B4 A4 G4 F4 | G16 | G8 z4 B4 | %9
w: |Al-|ma Re\-|* dem- pto- ris|Ma\- * * *|ter, Re\-|* dem- pto- ris|Ma-|ter, quae|
 A6 G2 ^F4 G4- | G4 ^F4 z4 (G4- | G2 ^FE !courtesy!^F4) G4 B4- | (B2 AG A4) B4 B4 | %13
w: per- vi- a coe\-|* li por\-|* * * * ta ma\-|* * * * nes, et|
 (F2 E2 F2 G2 A4) d4 | c8 F4 F4 | (B6 A2 G4) A4 | (^F4 G6 FE F4) | G8 z4 G4 | B6 AG (F6 G2 | %19
w: stel\- * * * * la|ma- ris, et|stel\- * * la|ma\- * * * *|ris, suc-|cur- re ca- den\- *|
 A4) A4 z2 A2 G4- | G2 F2 F4 (E2 F4 E2) | F8 A6 A2 | A4 A4 G8- | G4 F4 E6 E2 | ^F8 z8 | z8 A8 | %26
w: * ti, suc- cur\-|* re ca- den\- * *|ti, sur- ge-|re qui cu\-|* rat po- pu-|lo:|Tu|
 z2 E2 E2 E2 G4 D4 | z2 d2 f2 d2 c4 F4 | z2 c2 _e2 c2 d4 B2 B2 | A2 (B4 A2) B8 | %30
w: quae ge- nu- i- sti,|quae ge- nu- i- sti,|quae ge- nu- i- sti, ge-|nu- i\- * sti,|
 z4 z2 F2 B2 G2 B4 ||[M:3/1] A16 A8 | B12 c4 d8 | c8 c8 c8 |[M:3/1] G8 G8 F8 | A16 A8 | B16 A8 | %37
w: quae ge- nu- i-|sti, na-|tu- ra mi-|ran- te, na-|tu- ra mi-|ran- te,|tu- um|
 G24 | ^F8 G8 D8 || E8 ^F8- | F8 (B8 | A8) G8 |[M:4/2] A4 B4 c4 B4 | c6 c2 d8 | z4 c2 c2 d4 c2 c2 | %45
w: san-|ctum Ge- ni-|to- rem,|* Vir\-|* go|pri- us ac po-|ste- ri- us,|Ga- bri- e- lis ab|
 d4 A4 z4 F4- | F2 G2 A2 B2 c4 F4 | D4 D4 _E8 | D4 d6 c2 B2 A2 | G4 G4 z4 B4- | B2 c2 d2 e2 f4 f4 | %51
w: o- re, su\-|* mens il- lud A- ve,|il- lud A-|ve, su- mens il- lud|A- ve, su\-|* mens il- lud A- ve,|
 z4 f6 _e2 d2 c2 | B8 B4 G4 | B4 A4 (B2 A2 B2 c2 | d4) _e6 d2 c2 B2 | A8 =B8 | c6 c2 c4 d4 | %57
w: su- mens il- lud|A- ve, il-|lud A- ve, * * *|* su- mens il- lud|A- ve|pec- ca- to- rum|
 A4 A4 (B6 AG | A8) D8 | _E12 F4 | G8 !fermata!G16 |] %61
w: mi- se- re\- * *|* re,|mi- se-|re- re.|
V:3
 d16 | G16 | B12 B4 | A4 B4 (c4 d4- | d2 ^c=B !courtesy!^c4) d8 | B12 B4 | %6
w: Al-|ma|Re- dem-|pto- ris Ma\- *|* * * * ter,|al- ma|
[M:4/2][K:treble-8] G4 A4 (B2 c2 d2 B2 | _e4) d4 c8 | B4 G4 B6 c2 | d4 d8 d4 | d12 B4 | A8 G4 d4 | %12
w: Re- dem- pto\- * * *|* ris Ma-|ter, quae per- vi-|a coe- li|por- ta|ma- nes, et|
 f8 f4 B4 | (d2 c2 d2 e2 f8) | f8 z4 d4 | d4 d4 (_e8 | d8) d8- | d16 | d8 z2 d2 f4- | %19
w: stel- la, et|stel\- * * * *|la, et|stel- la ma\-|* ris,||* suc- cur\-|
 f2 ed c4 f2 f2 e4 | f4 F4 G8 | F8 z4 c4- | c2 c2 d4 d4 e4 | ^c4 d8 c4 | d8 z8 | d8 z2 A2 A2 A2 | %26
w: * re ca- den- ti, suc- cur-|re ca- den-|ti, sur\-|* ge- re qui cu-|rat po- pu-|lo:|Tu quae ge- nu-|
 c8 B2 G2 B2 G2 | d4 A4 z2 F2 A2 F2 | c4 c4 z2 B2 d2 B2 | (c2 d_e f4) f8 | z2 B2 A2 d2 d8 || %31
w: i- sti, quae ge- nu-|i- sti, quae ge- nu-|i- sti, quae ge- nu-|i\- * * * sti,|quae ge- nu- i-|
[M:3/1] d24 | z8 z8 B8 | A12 B4 c8 |[M:3/1][K:treble-8] B24 | f24 | f16 f8 | d24 | d8 d8 d8 || %39
w: sti,|na-|tu- ra mi-|ran-|te,|tu- um|san-|ctum Ge- ni-|
 (^c2 d4 c2) d8 | z4 d8 e4 | f8 B8 |[M:4/2][K:treble-8] f12 d4 | f6 f2 f4 d2 d2 | B4 A2 A2 B4 F4 | %45
w: to\- * * rem,|Vir- go|pri- us|ac po-|ste- ri- us, Ga- bri-|e- lis ab o- re,|
 z4 F2 F2 B4 A2 A2 | B4 c4 z8 | z4 G6 F2 G2 A2 | B4 A4 z4 B4- | B2 A2 G2 F2 G4 G4 | %50
w: Ga- bri- e- lis ab|o- re|su- mens il- lud|A- ve, su\-|* mens il- lud A- ve,|
 G2 A2 B2 c2 d8 | c8 B8 | z4 G6 A2 B2 c2 | d8 G8- | G8 z8 | z4 d8 d4 | _e4 c4 e4 d4 | d16- | %58
w: su- mens il- lud A\-|* ve,|su- mens il- lud|A- ve,||pec- ca-|to- rum mi- se-|re\-|
 d8 =B8 | c12 d4 | _e8 !fermata!d16 |] %61
w: * re,|mi- se-|re- re.|
V:4
 z16 | z8 G,8- | G,8 D,8 | F,12 F,4 | G,4 A,4 B,8 | G,16 |[M:4/2] _E,12 D,4 | C,4 =B,,4 C,8 | %8
w: |Al\-|* ma|Re- dem-|pto- ris Ma-|ter,|Re- dem-|pto- ris Ma-|
 G,,16 | z8 z4 G,,4 | D,6 E,2 ^F,4 G,4 | D,8 G,4 G,4 | F,8 B,,8- | B,,8 z4 B,,4 | %14
w: ter,|quae|per- vi- a coe-|li por- ta|ma- nes,|* et|
 (F,2 E,2 F,2 G,2 A,4) B,4- | B,4 G,4 C,4 C,4 | D,16 | G,,16 | z4 G,4 B,6 A,G, | F,8 F,4 C,4 | %20
w: stel\- * * * * la,|* et stel- la|ma-|ris,|suc- cur- re ca-|den- ti, suc-|
 D,6 E,F, C,8 | F,,8 F,6 F,2 | F,4 F,4 G,4 G,4 | (A,8 A,,6) A,,2 | D,8 z8 | z16 | z8 G,8 | %27
w: cur- re ca- den-|ti, sur- ge-|re qui cu- rat|po\- * pu-|lo:||Tu|
 z2 D,2 D,2 D,2 F,8 | C,8 z2 G,2 B,2 G,2 | F,8 B,,8 | z2 B,,2 D,2 B,,2 G,,8 ||[M:3/1] D,16 D,8 | %32
w: quae ge- nu- i-|sti, quae ge- nu-|i- sti,|quae ge- nu- i-|sti, na-|
 G,12 A,4 B,8 | F,8 F,8 F,8 |[M:3/1] G,12 A,4 B,8 | F,16 F,8 | B,16 F,8 | G,24 | D,8 G,8 B,8 || %39
w: tu- ra mi-|ran- te, na-|tu- ra mi-|ran- te,|tu- um|san-|ctum Ge- ni-|
 A,8 D,8- | D,8 G,8 | F,8 _E,6 E,2 |[M:4/2] D,4 B,,4 F,8 | F,,8 B,,8 | z4 F,2 F,2 B,4 A,2 A,2 | %45
w: to- rem,|* Vir-|go pri- us|ac po- ste-|ri- us,|Ga- bri- e- lis ab|
 B,4 F,4 z8 | z4 F,6 _E,2 D,2 C,2 | B,,4 G,,4 C,4 C,4 | D,8 G,8 | z4 _E,6 F,2 G,2 A,2 | %50
w: o- re,|su- mens il- lud|A- ve, il- lud|A- ve,|su- mens il- lud|
 B,4 G,4 D,4 D,4 | F,8 B,,4 B,4- | B,2 A,2 G,2 F,2 _E,8 | D,8 z4 G,4- | G,2 F,2 _E,2 D,2 C,8 | %55
w: A- ve, il- lud|A- ve, su\-|* mens il- lud A-|ve, su\-|* mens il- lud A-|
 D,8 G,,8 | C,6 C,2 C,4 B,,4 | D,8 D,8 | D,8 G,8 | C,4 C,4 C,8- | C,8 !fermata!G,,16 |] %61
w: * ve|pec- ca- to- rum|mi- se-|re- re,|mi- se- re\-|* re.|

